X: 7
T:Prince Charlie's Welcome to Skye
T:Twa Bonnie Maidens
T:Planxty George Brabazon
R:March
Z:3rd Part added by  alf.warnock@rogers.com
M:4/4
L:1/8
K:D
dB|"D"A2D2 GFED|A2D2 GFED|"Em"B2E2 EFGE|B2E2 "A7"E2FG|
"D"A2GF "G"d2cB|"D"A2GF GFED|"G"FEDB, "A7"A,B,DE|"D"F2D2 D2:||
de|f2df "A"e2ce|"D"d2Ad "Bm"BAGF|"Em"B2E2 EFGE|B2E2 "A7"E2de|
"D"f2df "A"e2ce|"D"d2Ad "Bm"BAGF|"G"GFED "A7"A,B,DE|"D"F2D2 D2:||
ag|.f2.d2 fgag|.f2.d2 fgag|"Em".g2.e2 efga|"A7".b2.e2 e2ag|
"D".f2.d2 fgag|.f2.d2 fgag|"Em"fgab "A7"agfe|"D"f2d2 d2:|

